X: 230
T: Two White Buffalo, Take Courage
C: Teton Sioux band 1911-1914
N: Derived from sioux225.krn
O: South Dakota, U.S.A.
N: Teton Sioux Music by Frances Densmore, 1918
Z: transcribed to **kern format by Craig Sapp
L: 1/8
M: 2/4
Q: 1/4=58
K: G clef=bass
%%linebreak <none>
G2G E [I:setbarnb 1]||  
[M:3/4]G E (3E E EE2 | 
E EE2G E ||  
[M:2/4]E< DD2 | 
D DB,2 ||  
[M:3/4]D/< B,/ B, B, B,-B,2 ||  
[M:2/4]B, B, ^A, B, | 
(3^A, A, G, G,/ G,/ G, ||  
[M:3/4]B,< D D< DD2 | 
G/> G/ E D< DD2 ||  
[M:2/4]B,< D E/ D3/ | 
D2B, B, ||  
[M:3/4]D< B, B, ^A,/ A,/ A, A, ||  
[M:2/4]G,< B, B,/ B,3/ | 
^A, B, (3B, A, A, | 
G,2G,3/ G,/ | 
G,4 | 
G,4 |]  



